openframe-frontend-core/src/components/icons-v2/brand-logos/soundcloud.svg

<svg width="24" height="24" viewBox="0 0 24 24" fill="none" xmlns="http://www.w3.org/2000/svg">
<path d="M20.8755 15.0005C20.8755 13.8068 20.1476 12.7824 19.1118 12.3477C19.083 13.0293 18.9756 13.6907 18.7881 14.3208C18.6109 14.9163 17.9847 15.2554 17.3892 15.0781C16.7937 14.9009 16.4547 14.2746 16.6318 13.6792C16.7897 13.1487 16.875 12.5855 16.875 12.0005C16.875 11.7146 16.8541 11.4335 16.8149 11.1597C16.408 8.31348 13.9584 6.125 10.9995 6.125C10.7017 6.12502 10.4098 6.14845 10.125 6.19092V17.8745H18C19.5877 17.8745 20.8752 16.5881 20.8755 15.0005ZM23.1255 15.0005C23.1252 17.8307 20.8303 20.1245 18 20.1245H10.0005C8.82705 20.1245 7.87527 19.1739 7.875 18.0005V6.03564C7.875 5.12634 8.48126 4.20123 9.52148 4.00977L9.8833 3.95117C10.2487 3.90088 10.6214 3.87502 10.9995 3.875C14.7778 3.875 17.9512 6.45351 18.8613 9.94678C21.2817 10.3564 23.1255 12.4635 23.1255 15.0005Z" fill="#888888"/>
<path d="M0.875 18.9995V12.0005C0.875 11.3792 1.37868 10.8755 2 10.8755C2.62132 10.8755 3.125 11.3792 3.125 12.0005V18.9995C3.125 19.6208 2.62132 20.1245 2 20.1245C1.37868 20.1245 0.875 19.6208 0.875 18.9995ZM4.37451 18.9995V8C4.37451 7.37884 4.87842 6.87526 5.49951 6.875C6.12083 6.875 6.62451 7.37868 6.62451 8V18.9995C6.62451 19.6208 6.12083 20.1245 5.49951 20.1245C4.87842 20.1242 4.37451 19.6207 4.37451 18.9995Z" fill="#888888"/>
</svg>

<svg xmlns="http://www.w3.org/2000/svg" width="24" height="24" fill="none" viewBox="0 0 24 24">
  <path fill="#888" d="M20.875 15a2.877 2.877 0 0 0-1.763-2.652 8.11 8.11 0 0 1-.324 1.973 1.125 1.125 0 1 1-2.156-.642 5.875 5.875 0 0 0 .183-2.52 5.876 5.876 0 0 0-6.69-4.968v11.684H18A2.875 2.875 0 0 0 20.875 15Zm2.25 0A5.125 5.125 0 0 1 18 20.126h-8A2.125 2.125 0 0 1 7.876 18V6.036c0-.91.606-1.835 1.646-2.026l.362-.059a8.127 8.127 0 0 1 8.978 5.996A5.128 5.128 0 0 1 23.125 15ZM.875 19v-7a1.125 1.125 0 0 1 2.25 0v7a1.125 1.125 0 0 1-2.25 0Zm3.5 0V8a1.125 1.125 0 0 1 2.25 0v11a1.125 1.125 0 0 1-2.25 0Z"/>
</svg>
